X:4886
L:1/8
M:3/2
K:C
 A2 F2 F2 Bc dcBA | A2 F2 F2 c2 A2 f2 | A2 F2 F2 Bc dcBA | B2 G2 G2 c2 Bc d2 :: f3 g f2 F2 g2 A2 | 
 f3 g f2 F2 A2 c2 | f3 g f2 F2 f2 A2 | gfed g2 G2 Bc d2 :: gfed edcA cAGF | A2 f2 f2 F2 A2 c2 | 
 gfed edcA cAGF | G2 g2 g2 G2 Bc d2 :: F4 A3 G FGAF | A2 F2 F2 c2 A2 f2 | F4 A3 G FGAF | 
 B2 G2 G2 c2 Bc d2 :: f3 c fdcd f2 c2 | fdcd f2 F2 A2 c2 | f3 c fdcd f2 c2 | gfed g2 G2 Bc d2 :: 
 A2 F2 f2 A2 g2 A2 | f2 A2 g2 A2 Bc d2 | A2 F2 f2 A2 g2 A2 | gfed g2 G2 Bc d2 :: cAFA cAFA cAFA | 
 CAFA cAFA c2 f2 | cAFA cAFA cAFA | B2 G2 G2 c2 Bc d2 :|

